X:1
T:Title
%%score { 1 | 2 }
L:1/8
M:6/8
K:F
V:1 treble nm="Grand Piano"
V:2 bass 
V:1
 z3 z2[Q:1/4=100] C | CFF FGA | [EG][EG][EG] [EG][FA][GB] | Acc cAF | DG[=B,F] E2 C | CFF FGA | %6
 [EG][EG][EG] [EG][FA][GB] | Acc cAF |[M:5/8] [DG]DE F2 |[M:1/8] A | %10
[M:3/4] [EG]>[EG] [EG][EG] [CE][EG] | [Ec]>[Ec] [Ec][Ec] [EG][Ec] | [Ge]>[Ge] [Ge][Ge] [Gd][Gc] | %13
[M:7/8] dA=B [Ec]3 [G_B] |[M:3/4] A>A AA [CGB][CAc] | [DFB]>[DFB] [DFB][B,FB] [Fc][Fd] | %16
 c>c cc AF | %17
[M:5/8] [DG]DE F2[Q:1/4=97][Q:1/4=94][Q:1/4=91][Q:1/4=88][Q:1/4=84][Q:1/4=81][Q:1/4=78] |] %18
V:2
 z3 z2 [F,A,] | [F,A,][F,A,C][F,A,C] [F,A,C][F,B,C][F,CF] | [C,C][C,C][C,C] [C,C][C,C][C,C] | %3
 [F,CF][F,A,F][F,A,F] [F,A,F][F,CF][F,A,C] | [G,=B,][G,B,][G,,G,] [C,G,C]2 [E,_B,] | %5
 [F,A,][F,A,C][F,A,C] [F,A,C][F,B,C][F,CF] | [C,C][C,C][C,C] [C,C][C,C][C,C] | %7
 [F,CF][F,A,F][F,A,F] [F,A,F][F,CF][F,A,C] |[M:5/8] [B,,B,][B,,B,][C,B,C] [F,A,C]2 | %9
[M:1/8] [F,CF] |[M:3/4] [C,C]>[C,C] [C,C][C,C] [C,G,][C,C] | %11
 [C,G,]>[C,G,] [C,G,][C,G,] [C,G,][C,G,] | [C,C]>[C,C] [C,C][C,C] [D,=B,][E,C] | %13
[M:7/8][K:treble] [F,A,F][F,DF][G,DF][K:bass] [C,C]3 [C,C] | %14
[M:3/4] [F,CF]>[F,CF] [F,CF][F,CF] F,F, | B,,>B,, B,,D, [C,A,][B,,B,] | %16
 [F,A,F]>[F,A,F] [F,A,F][F,A,F] [F,CF][F,A,C] |[M:5/8] [B,,B,][B,,B,][C,B,C] [F,A,C]2 |] %18

